X: 41802
T: Vicky's Spooky Tune
R: jig
M: 6/8
K: Aminor
A,EE FED|CEE B,EE|A,EE FED|CB,C E3|
A,EE FED|CEE B,EE|A,EE FED|CB,C A,3|
A2c BAG|AEE AEE|A2c BAG|ABc e3|
A2c BAG|AEE AEE|AGE FED|CB,C A,3|

